!!!OTL: Abgewiesene Freier ( Drei Gesellen ) Es war'n mal drei junge Gesellen,
!!!ARE: Europa, Mitteleuropa, Lothringen, Weiler
!!!SCT: D0014
!!!YEM: Copyright 1995, estate of Helmut Schaffrath.
**kern
*ICvox
*Ivox
*M2/4
*k[f#]
*G:
{8d
=1
4g
8d
8d
=2
4g
8b
8a
=3
4g
8d}
{8d
=4
4g
4d
=5
4g
8b
8a
=6
4g
8d}
{8b
=7
8b
8b
8b
8b
=8
4.b
8b
=9
8a
8b
8cc
8b
=10
4.a}
{8g
=11
8f#
8a
8a
8a
=12
8a
8dd
8dd
8cc
=13
8b
8a
8a
8a
=14
4.g}
{8b
=15
8b
8b
8b
8b
=16
4.b
8b
=17
8a
8b
8cc
8b
=18
4.a}
{8g
=19
8f#
8a
8a
8a
=20
8a
8dd
8dd
8cc
=21
8b
8a
8a
8a
=22
4.g}
==
!!!AGN: Ballade, Werbung
!! Takt - und Zeilenwiederholung;Inzipit = entfernte Variante zum Lied
!!!ONB: ESAC (Essen Associative Code) Database: DVA
!!!AMT: simple duple
!!!AIN: vox
!!!EED: Helmut Schaffrath
!!!EEV: 1.0
*-
